src/assets/logos/ftb.svg

<svg viewBox="0 0 875.56 665.73" xmlns="http://www.w3.org/2000/svg"><g transform="translate(0 .02998)"><path d="m542.7 0c-140.5 0-260.7 87.1-309.5 210.2v-194.7h-233.2v634.7h233.2v-194.7c48.8 123.1 169 210.2 309.5 210.2 183.8 0 332.9-149 332.9-332.9s-149-332.8-332.9-332.8zm67.8 502.6h-44.9v107.5h-45.9v-107.5h-44.9v-48.9h135.6v48.9zm.1-190h-82.8v17h74v45.3h-74v15.9h82.8v45.9h-135.7v-170h135.7zm-50.8-62.9h-85v-170h82.6c35.1 0 57.8 19 57.8 48.4 0 14.5-5.3 26.4-15.1 34.2 11 8 17.3 21.1 17.3 36.3 0 31-22.6 51.1-57.6 51.1z"/><path d="m552 184.2h-24.3v21.1h24.3c11 0 12.3-6.4 12.3-11.2 0-9-8.6-9.9-12.3-9.9z"/><path d="m562.4 132.5c0-2.9 0-9.7-12.7-9.7h-21.9v19.4h21.8c12.8 0 12.8-7.3 12.8-9.7z"/></g></svg>

<svg xmlns:dc="http://purl.org/dc/elements/1.1/" xmlns:cc="http://creativecommons.org/ns#" xmlns:rdf="http://www.w3.org/1999/02/22-rdf-syntax-ns#" xmlns:svg="http://www.w3.org/2000/svg" xmlns="http://www.w3.org/2000/svg" id="svg16" version="1.1" viewBox="0 0 875.56 665.73">
  <metadata id="metadata20">
    <rdf:RDF>
      <cc:Work rdf:about="">
        <dc:format>image/svg+xml</dc:format>
        <dc:type rdf:resource="http://purl.org/dc/dcmitype/StillImage"/>
        <dc:title>10Bet_logo</dc:title>
      </cc:Work>
    </rdf:RDF>
  </metadata>
  <defs id="defs4">
    <style id="style2">.cls-1{fill:#4E454A;}</style>
  </defs>
  <title id="title6">10Bet_logo</title>
  <g transform="translate(0,0.02998047)" id="g8">
    <path id="path2" d="M 542.7,0 C 402.2,0 282,87.1 233.2,210.2 V 15.5 H 0 V 650.2 H 233.2 V 455.5 c 48.8,123.1 169,210.2 309.5,210.2 183.8,0 332.9,-149 332.9,-332.9 C 875.6,148.9 726.6,0 542.7,0 Z m 67.8,502.6 H 565.6 V 610.1 H 519.7 V 502.6 h -44.9 v -48.9 h 135.6 v 48.9 z m 0.1,-190 h -82.8 v 17 h 74 v 45.3 h -74 v 15.9 h 82.8 v 45.9 H 474.9 v -170 h 135.7 z m -50.8,-62.9 h -85 v -170 h 82.6 c 35.1,0 57.8,19 57.8,48.4 0,14.5 -5.3,26.4 -15.1,34.2 11,8 17.3,21.1 17.3,36.3 0,31 -22.6,51.1 -57.6,51.1 z"/>
    <path id="path4" d="m 552,184.2 h -24.3 v 21.1 H 552 c 11,0 12.3,-6.4 12.3,-11.2 0,-9 -8.6,-9.9 -12.3,-9.9 z"/>
    <path id="path6" d="m 562.4,132.5 c 0,-2.9 0,-9.7 -12.7,-9.7 h -21.9 v 19.4 h 21.8 c 12.8,0 12.8,-7.3 12.8,-9.7 z"/>
  </g>
</svg>
